X: 19061
T: The Rakish Highlandman
R: jig
B: RSCDS 19-6(I)
Z: 1997 by John Chambers <jc:trillian.mit.edu>
M: 6/8
L: 1/8
%--------------------
K: EDor
G/F/ \
| "Em"E2B B2A | GBG E2G | "D"FAF D2G | FAF D2G/F/ \
| "Em"E2B B2A | GBG E2G | "D"FAF D2F | "Em"E3 E2 :|
|: G/A/ \
| "G"B2A "(A)"B2c | "D"d2c d3 | FAF D2G | FAF D2G/A/ \
| "G"B2A "(A)"B2c | "D"d2c d3 | FAF D2F | "Em"E3 E2 :|
%%center Book19/19061-Rakish_Highlandman-1.abc

%%sep 1 1 500
%%sep 1 1 500

